X:358
T: Mr. Walker's Hornpipe
N: "Irish"
N: O'Farrell's Pocket Companion v.4 (Sky ed. p.154)
D: O'Sullivan Meets O'Farrell track 12B
M: 4/4
L: 1/8
Q: 300
R: hornpipe
K: G
D|: G2G2 GBAc| B2G2 G3B| dBgf edcB| ABAG FDEF|
G2G2 GBAc| B2G2 G3d| gfed fed^c|1 d2de dcBA :|
[2 d2d2d3 ||
c| Bdgf edcB| cBA^G AGAB| cBcd ecAG| FGAG FDEF|
G2GG GBAc| BdFA GBdf| gfge dcBA| G2G2 G3 :|
